plugins/svg-icons/icons/brands/readdotcv.svg

<svg fill="currentColor" role="img" viewBox="0 0 24 24" xmlns="http://www.w3.org/2000/svg"><title>read.cv</title><path d="M8.95722 5.07654c-.42115-.1125-.85403.13665-.96688.55648-.11283.41983.13708.85138.55824.96387l9.15052 2.44427c.4212.1125.8541-.13666.9669-.55649.1129-.41984-.1371-.85138-.5582-.96386L8.95722 5.07654ZM6.96873 9.43392c.11284-.41983.54572-.66899.96686-.55649l9.15061 2.44427c.4211.1125.6709.544.5582.9639-.1128.4198-.5457.669-.9669.5565l-9.15056-2.4443c-.42113-.1125-.67107-.54405-.55821-.96388ZM6.91397 12.6783c-.42114-.1125-.85403.1367-.96686.5565-.11285.4198.13708.8513.55822.9639l5.33777 1.4259c.4212.1124.8541-.1367.9669-.5567.1129-.4198-.1371-.8512-.5582-.9638l-5.33783-1.4258Z M20.8587 3.36707 8.65799.10804C6.97343-.34192 5.2419.65467 4.7905 2.334L.90837 16.777c-.45138 1.679.54831 3.405 2.23287 3.855L15.342 23.892c1.6846.4499 3.416-.5467 3.8675-2.226l3.8821-14.44346c.4513-1.67933-.5483-3.40549-2.2329-3.85547ZM6.3156 2.74138c.2257-.83967 1.09146-1.33797 1.93375-1.11297L20.4501 4.88744c.8422.22498 1.3421 1.08806 1.1163 1.92772L17.6843 21.2586c-.2255.8397-1.0914 1.338-1.9336 1.1129l-12.20079-3.259c-.84229-.225-1.34214-1.088-1.11645-1.9276L6.3156 2.74138Z"/></svg>

<svg fill="currentColor" role="img" viewBox="0 0 24 24" xmlns="http://www.w3.org/2000/svg"><title>Read.cv</title><path d="M20.8315 3.36707L8.66861 0.10804C6.98928 -0.34192 5.26312 0.65467 4.81314 2.334L0.94304 16.7773C0.49306 18.4568 1.48966 20.1829 3.16899 20.6328L15.3319 23.892C17.0112 24.3419 18.7373 23.3453 19.1874 21.666L23.0574 7.22254C23.5073 5.54321 22.5108 3.81705 20.8315 3.36707ZM6.33349 2.74138C6.55849 1.90171 7.42156 1.40341 8.26123 1.62841L20.4241 4.88744C21.2637 5.11242 21.762 5.9755 21.537 6.81516L17.6669 21.2586C17.4421 22.0983 16.5789 22.5966 15.7393 22.3715L3.57639 19.1125C2.73671 18.8875 2.23842 18.0245 2.4634 17.1849L6.33349 2.74138ZM8.9669 5.07654C8.54705 4.96404 8.11552 5.2132 8.00302 5.63302C7.89054 6.05285 8.13968 6.4844 8.55952 6.59689L17.6817 9.04116C18.1015 9.15366 18.5331 8.90451 18.6455 8.48468C18.7581 8.06483 18.5089 7.6333 18.0891 7.52081L8.9669 5.07654ZM6.98458 9.43392C7.09708 9.01409 7.52862 8.76493 7.94844 8.87743L17.0706 11.3217C17.4904 11.4342 17.7395 11.8657 17.6271 12.2856C17.5146 12.7054 17.0831 12.9546 16.6632 12.8421L7.54107 10.3978C7.12124 10.2853 6.87208 9.85375 6.98458 9.43392ZM6.93 12.6783C6.51017 12.5658 6.07862 12.815 5.96614 13.2348C5.85364 13.6546 6.1028 14.0861 6.52263 14.1987L11.8439 15.6246C12.2637 15.737 12.6952 15.4879 12.8077 15.0679C12.9202 14.6481 12.6711 14.2167 12.2513 14.1041L6.93 12.6783Z"/></svg>
